app/result/img/arrow-sl-l.svg

<svg width="4" height="7" viewBox="0 0 4 7" fill="none" xmlns="http://www.w3.org/2000/svg">
<path d="M0.150815 3.81322L2.80642 6.66982C2.90422 6.78099 3.02634 6.83655 3.17303 6.83655C3.31972 6.83655 3.44185 6.78093 3.53964 6.66982L3.8492 6.34067C3.9497 6.23243 3.99994 6.10085 3.99994 5.9458C3.99994 5.79369 3.94971 5.66055 3.8492 5.54649L1.86966 3.41826L3.84929 1.28564C3.94975 1.1774 4 1.04582 4 0.89076C4 0.738665 3.94977 0.605474 3.84929 0.491465L3.5397 0.162362C3.43922 0.0541157 3.31697 4.18519e-07 3.17309 4.06234e-07C3.02915 3.93945e-07 2.90693 0.0541157 2.80648 0.162362L0.150815 3.01896C0.0502919 3.13305 1.27327e-06 3.26616 1.25965e-06 3.41827C-1.30593e-05 3.57332 0.0502918 3.70497 0.150815 3.81322Z" fill="#375B7D"/>
</svg>

<svg width="4" height="7" viewBox="0 0 4 7" fill="none" xmlns="http://www.w3.org/2000/svg"><path d="M.15 3.813L2.807 6.67c.098.111.22.167.367.167a.468.468 0 0 0 .367-.167l.31-.33A.56.56 0 0 0 4 5.947a.585.585 0 0 0-.15-.4L1.87 3.418l1.98-2.132A.56.56 0 0 0 4 .89a.585.585 0 0 0-.15-.4L3.54.162A.482.482 0 0 0 3.173 0a.481.481 0 0 0-.367.162L.151 3.02a.585.585 0 0 0-.151.4c0 .154.05.286.15.394z" fill="#375B7D"/></svg>
